img/youtube.svg

<svg width="40" height="29" viewBox="0 0 40 29" fill="none" xmlns="http://www.w3.org/2000/svg">
<path d="M38.2045 5.22639C37.9993 4.39755 37.5815 3.63813 36.9932 3.02484C36.4048 2.41155 35.6669 1.96611 34.8538 1.73351C31.883 1 20 1 20 1C20 1 8.11698 1 5.14623 1.80336C4.33315 2.03596 3.59518 2.4814 3.00685 3.09469C2.41851 3.70798 2.00066 4.4674 1.79549 5.29625C1.2518 8.34476 0.98585 11.4373 1.00099 14.5349C0.981607 17.6559 1.24757 20.772 1.79549 23.8435C2.02168 24.6466 2.4489 25.3771 3.03586 25.9645C3.62282 26.5519 4.34969 26.9763 5.14623 27.1966C8.11698 28 20 28 20 28C20 28 31.883 28 34.8538 27.1966C35.6669 26.964 36.4048 26.5186 36.9932 25.9053C37.5815 25.292 37.9993 24.5326 38.2045 23.7038C38.744 20.6782 39.0099 17.6093 38.999 14.5349C39.0184 11.414 38.7524 8.29786 38.2045 5.22639Z" fill="white" stroke="white" stroke-linecap="round" stroke-linejoin="round"/>
<path d="M15 19.5702C15 19.5779 15.0083 19.5827 15.0149 19.5789L24.2932 14.3024C24.3 14.2986 24.3 14.2888 24.2932 14.285L15.0149 9.0085C15.0083 9.00471 15 9.00952 15 9.01719V19.5702Z" fill="#C3C3C3"/>
</svg>

<svg xmlns="http://www.w3.org/2000/svg" fill="none" viewBox="0 0 40 29"><path fill="#fff" stroke="#fff" stroke-linecap="round" stroke-linejoin="round" d="M38.205 5.226a4.87 4.87 0 0 0-1.212-2.201 4.792 4.792 0 0 0-2.14-1.291C31.884 1 20 1 20 1S8.117 1 5.146 1.803a4.791 4.791 0 0 0-2.14 1.292 4.87 4.87 0 0 0-1.21 2.201A51.197 51.197 0 0 0 1 14.535c-.02 3.12.247 6.237.794 9.308a4.867 4.867 0 0 0 1.24 2.122 4.789 4.789 0 0 0 2.111 1.232C8.117 28 20 28 20 28s11.883 0 14.854-.803a4.792 4.792 0 0 0 2.14-1.292 4.87 4.87 0 0 0 1.21-2.201 51.2 51.2 0 0 0 .795-9.17c.02-3.12-.247-6.236-.794-9.308Z"/><path fill="#C3C3C3" d="M15 19.57a.01.01 0 0 0 .015.009l9.278-5.277a.01.01 0 0 0 0-.017l-9.278-5.277a.01.01 0 0 0-.015.01V19.57Z"/></svg>
